X:800
T:Reel 800
M:4/4
K:Ador
L:1/8
CDA,D C2A,C|B,CDB, A,G,A,2|CEA,C A,2A,2|B,CA,E, B,G,A,2:|B,CB,D A2ED|B,CDB, C2A,2|B,CDB, C2A,2|G,2G,G, A,2A,2|B,CDB, C2AF|G2DB, CG,G,2|CDEF G2EF|GEDC B,G,G,2|
